icons/24x24_phone_add_outline.svg

<svg xmlns="http://www.w3.org/2000/svg" width="24" height="24" viewBox="0 0 24 24">
  <path fill-rule="evenodd" d="M19.8671253,14.0014422 C18.8759669,14.022978 17.9440219,14.2848634 17.127252,14.7311366 L15.9839118,14.0724515 C15.9412637,14.0544359 15.9145464,14.0495 15.8876604,14.0495 C15.814976,14.0495 15.7456775,14.0787429 15.7224694,14.1028692 L13.5005203,16.471038 L12.1331744,15.699148 C11.5114685,15.3481844 10.8147193,14.8115486 10.0429632,14.0527395 C9.23327711,13.2568798 8.66698921,12.5374319 8.30359508,11.8962885 L7.57842635,10.6168591 L8.58350279,9.54325277 L9.65157723,8.40248803 C9.70043415,8.35129471 9.72452615,8.19977136 9.7109011,8.16920479 L7.9986632,5.01835974 C7.9923573,5.00611991 7.05924778,5.98210998 5.19933464,7.94632993 C5.11519947,8.03419386 5.02067775,8.23613126 5.00484906,8.37269881 C4.99700432,8.43937438 4.99417795,8.59506834 5.01503045,8.82887553 C5.05130976,9.23565488 5.1487129,9.70693147 5.32684826,10.2370958 C5.85421024,11.8066242 6.95388856,13.529562 8.80838199,15.3526988 C10.3751976,16.8928431 11.869668,17.8961534 13.2617581,18.4682672 C13.5672356,18.5938107 13.8555192,18.6940563 14.125746,18.7721409 C14.0433208,19.1684982 14,19.57919 14,20 C14,20.2769184 14.0187598,20.5494553 14.0550779,20.816409 C12.496496,20.4624786 10.1399327,19.4660399 7.40636024,16.779 C2.70262741,12.1548 2.97174645,8.5368 3.01854977,8.139 C3.08425442,7.572 3.3695746,6.9654 3.75480186,6.5631 L6.52699802,3.6354 C6.91942579,3.225 7.4396626,3 7.99320177,3 C8.75015533,3 9.42700322,3.4212 9.77802806,4.1052 L11.4494463,7.1751 L11.4962496,7.2678 C11.8859772,8.094 11.7185654,9.1335 11.0984215,9.7833 L10.0435468,10.9101 C10.2460612,11.2674 10.6510898,11.8461 11.444946,12.6264 C12.1991994,13.368 12.7608391,13.7568 13.1163643,13.9575 L14.2639455,12.7344 C14.6797749,12.2997 15.2720168,12.0495 15.8876604,12.0495 C16.2305846,12.0495 16.5699086,12.1287 16.9191334,12.3024 L16.9659367,12.3303 L19.8671253,14.0014422 Z M21,19 L23,19 C23.5522847,19 24,19.4477153 24,20 C24,20.5522847 23.5522847,21 23,21 L21,21 L21,23 C21,23.5522847 20.5522847,24 20,24 C19.4477153,24 19,23.5522847 19,23 L19,21 L17,21 C16.4477153,21 16,20.5522847 16,20 C16,19.4477153 16.4477153,19 17,19 L19,19 L19,17 C19,16.4477153 19.4477153,16 20,16 C20.5522847,16 21,16.4477153 21,17 L21,19 Z"/>
</svg>

<svg width="24" height="24" fill="none" xmlns="http://www.w3.org/2000/svg"><path fill-rule="evenodd" clip-rule="evenodd" d="M19.867 14.001a5.97 5.97 0 0 0-2.74.73l-1.143-.659a.232.232 0 0 0-.096-.022.263.263 0 0 0-.165.053L13.5 16.47l-1.367-.772c-.621-.35-1.318-.887-2.09-1.646-.81-.796-1.376-1.516-1.74-2.157l-.725-1.28 1.006-1.073 1.068-1.14a.355.355 0 0 0 .059-.234L7.999 5.02c-.007-.013-.94.963-2.8 2.927a.904.904 0 0 0-.194.427c-.008.066-.01.222.01.456.036.407.134.878.312 1.408.527 1.57 1.627 3.293 3.481 5.116 1.567 1.54 3.062 2.543 4.454 3.115.305.126.593.226.864.304a6.028 6.028 0 0 0-.07 2.044c-1.56-.354-3.916-1.35-6.65-4.037-4.703-4.624-4.434-8.242-4.387-8.64a2.875 2.875 0 0 1 .736-1.576l2.772-2.928A2.012 2.012 0 0 1 7.993 3c.757 0 1.434.421 1.785 1.105l1.671 3.07.047.093c.39.826.223 1.865-.398 2.515l-1.055 1.127c.203.357.608.936 1.402 1.716.754.742 1.316 1.13 1.671 1.332l1.148-1.224a2.255 2.255 0 0 1 2.655-.432l.047.028 2.901 1.671ZM21 19h2a1 1 0 1 1 0 2h-2v2a1 1 0 1 1-2 0v-2h-2a1 1 0 1 1 0-2h2v-2a1 1 0 1 1 2 0v2Z" fill="#000"/></svg>
